src/pos-icons/wifi-strength-outline.svg

<svg height="24" viewBox="0 0 24 24" width="24" xmlns="http://www.w3.org/2000/svg"><path d="m12 3c-4.21 0-8.3 1.41-11.62 4h-.02c3.88 4.83 7.77 9.66 11.64 14.5 3.89-4.84 7.77-9.67 11.64-14.5h.01c-3.33-2.59-7.43-4-11.65-4m0 2c3.07 0 6.09.86 8.71 2.45l-8.71 10.85-8.73-10.86c2.63-1.59 5.65-2.44 8.73-2.44z"/></svg>

<?xml version="1.0" encoding="UTF-8"?><!DOCTYPE svg PUBLIC "-//W3C//DTD SVG 1.1//EN" "http://www.w3.org/Graphics/SVG/1.1/DTD/svg11.dtd"><svg xmlns="http://www.w3.org/2000/svg" xmlns:xlink="http://www.w3.org/1999/xlink" version="1.1" id="mdi-wifi-strength-outline" width="24" height="24" viewBox="0 0 24 24"><path d="M12,3C7.79,3 3.7,4.41 0.38,7H0.36C4.24,11.83 8.13,16.66 12,21.5C15.89,16.66 19.77,11.83 23.64,7H23.65C20.32,4.41 16.22,3 12,3M12,5C15.07,5 18.09,5.86 20.71,7.45L12,18.3L3.27,7.44C5.9,5.85 8.92,5 12,5Z" /></svg>
